svg/fluentui-system-icons/ic_fluent_table_checker_20_filled.svg

<svg width="20" height="20" viewBox="0 0 20 20" fill="none" xmlns="http://www.w3.org/2000/svg">
<path d="M7 3V7H3V5.5C3 4.11929 4.11929 3 5.5 3H7ZM12 8H8V12H12V8ZM13 13H17V14.5C17 15.8807 15.8807 17 14.5 17H13V13ZM8 4H14.5C15.3284 4 16 4.67157 16 5.5V12H17V5.5C17 4.11929 15.8807 3 14.5 3H8V4ZM5.5 16H12V17H5.5C4.11929 17 3 15.8807 3 14.5V8H4V14.5C4 15.3284 4.67157 16 5.5 16Z" fill="#212121"/>
</svg>

<svg xmlns="http://www.w3.org/2000/svg" width="20" height="20"><path d="M7 3v4H3V5.5A2.5 2.5 0 0 1 5.5 3H7Zm5 5H8v4h4V8Zm1 5h4v1.5a2.5 2.5 0 0 1-2.5 2.5H13v-4ZM8 4h6.5A1.5 1.5 0 0 1 16 5.5V12h1V5.5A2.5 2.5 0 0 0 14.5 3H8v1ZM5.5 16H12v1H5.5A2.5 2.5 0 0 1 3 14.5V8h1v6.5A1.5 1.5 0 0 0 5.5 16Z"/></svg>
